X:346
T:Condon's Frolics
T:Castletown Conners
R:jig
H:Also played in Ador, #154, or Edor, #356.
H:Sometimes played with 2nd part first.
Z:id:hn-jig-346
M:6/8
K:Bdor
fBc d2e|fed cBA|fBc d2e|f2e fba|fBc d2e|fed cBc|Ace aec|BcB B2f:|
fbb fga|efd cBA|dcd ede|f2e fga|fbb fga|efd cBc|Ace aec|BcB B2f:|

